packages/pilot/src/containers/Home/icons/total-amount-icon.svg

<svg width="26" height="28" viewBox="0 0 26 28" fill="none" xmlns="http://www.w3.org/2000/svg">
<path fill-rule="evenodd" clip-rule="evenodd" d="M25.556 11.18C25.2628 10.1095 24.8269 9.08329 24.26 8.129C23.689 7.16929 22.9941 6.28903 22.193 5.511C21.387 4.72711 20.4824 4.05143 19.502 3.501C18.5151 2.94678 17.4607 2.5226 16.365 2.239C15.2661 1.95312 14.1354 1.80796 13 1.807V0C11.707 0 10.414 0.167 9.156 0.494C7.915 0.817 6.709 1.296 5.571 1.936C4.45014 2.56512 3.41581 3.33725 2.494 4.233C1.57868 5.12238 0.784814 6.12875 0.133 7.226L1.741 8.129C1.17444 9.08308 0.738543 10.1089 0.445 11.179C0.150898 12.2459 0.00123003 13.3473 0 14.454C0 15.554 0.15 16.654 0.445 17.726C0.738475 18.7961 1.17437 19.822 1.741 20.776C2.31164 21.7362 3.00665 22.6169 3.808 23.395C4.631 24.195 5.538 24.865 6.499 25.405C7.496 25.965 8.55 26.385 9.636 26.667C10.736 26.952 11.868 27.098 13 27.098C14.132 27.098 15.264 26.953 16.365 26.667C17.4603 26.3835 18.5144 25.9597 19.501 25.406C20.4817 24.8552 21.3866 24.1792 22.193 23.395C23.016 22.595 23.703 21.712 24.26 20.777C25.3972 18.8634 25.9983 16.679 26 14.453C26 13.351 25.85 12.251 25.556 11.18ZM22.651 19.873C22.1617 20.6955 21.5663 21.45 20.88 22.117C19.4874 23.471 17.7652 24.4376 15.884 24.921C14.94 25.166 13.971 25.291 13 25.291C11.0495 25.2888 9.13182 24.7894 7.428 23.84C6.58753 23.3677 5.81175 22.7885 5.12 22.117C4.43419 21.4498 3.83909 20.6954 3.35 19.873C2.856 19.043 2.486 18.163 2.238 17.257C1.98629 16.3436 1.85815 15.4005 1.857 14.453C1.857 13.508 1.986 12.565 2.237 11.647C2.486 10.742 2.856 9.862 3.349 9.033L4.958 9.936L6.566 10.839L8.174 11.742L9.786 12.647L11.393 13.551C11.2309 13.8241 11.1446 14.1354 11.143 14.453C11.1439 14.7707 11.2302 15.0822 11.393 15.355C11.5563 15.632 11.7912 15.86 12.073 16.015C12.3565 16.1732 12.6754 16.2571 13 16.259C13.4892 16.2561 13.9588 16.0665 14.313 15.729C14.43 15.615 14.527 15.489 14.606 15.355C14.7286 15.1513 14.8083 14.9248 14.8403 14.6892C14.8723 14.4536 14.8558 14.214 14.792 13.985C14.7066 13.6748 14.54 13.393 14.3094 13.1687C14.0787 12.9444 13.7924 12.7857 13.48 12.709C13.3233 12.6678 13.162 12.6467 13 12.646V3.613C13.97 3.613 14.94 3.738 15.884 3.983C17.7647 4.46774 19.4866 5.43415 20.88 6.787C21.5662 7.45421 22.1613 8.20906 22.65 9.032C23.144 9.862 23.514 10.742 23.762 11.647C24.014 12.565 24.144 13.508 24.144 14.452C24.144 15.396 24.014 16.339 23.762 17.257C23.5108 18.1749 23.1371 19.0548 22.651 19.873V19.873Z" fill="#4079BB"/>
</svg>

<svg xmlns="http://www.w3.org/2000/svg" width="26" height="28" viewBox="0 0 26 28">
    <path fill="#49A8D3" fill-rule="evenodd" d="M25.556 11.18a12.377 12.377 0 0 0-1.296-3.051 12.705 12.705 0 0 0-2.067-2.618 12.96 12.96 0 0 0-2.691-2.01 13.12 13.12 0 0 0-3.137-1.262A13.41 13.41 0 0 0 13 1.807V0c-1.293 0-2.586.167-3.844.494-1.241.323-2.447.802-3.585 1.442a14.833 14.833 0 0 0-3.077 2.297A14.496 14.496 0 0 0 .133 7.226l1.608.903a12.396 12.396 0 0 0-1.296 3.05A12.375 12.375 0 0 0 0 14.454c0 1.1.15 2.2.445 3.272a12.39 12.39 0 0 0 1.296 3.05 12.68 12.68 0 0 0 2.067 2.619c.823.8 1.73 1.47 2.691 2.01.997.56 2.051.98 3.137 1.262 1.1.285 2.232.431 3.364.431 1.132 0 2.264-.145 3.365-.431a13.129 13.129 0 0 0 3.136-1.261 12.976 12.976 0 0 0 2.692-2.011c.823-.8 1.51-1.683 2.067-2.618A12.397 12.397 0 0 0 26 14.453c0-1.102-.15-2.202-.444-3.273zm-2.905 8.693a10.899 10.899 0 0 1-1.771 2.244 11.146 11.146 0 0 1-4.996 2.804c-.944.245-1.913.37-2.884.37a11.474 11.474 0 0 1-5.572-1.451 11.169 11.169 0 0 1-2.308-1.723 10.914 10.914 0 0 1-1.77-2.244c-.494-.83-.864-1.71-1.112-2.616a10.603 10.603 0 0 1-.381-2.804c0-.945.129-1.888.38-2.806.249-.905.619-1.785 1.112-2.614l1.609.903 1.608.903 1.608.903 1.612.905 1.607.904a1.784 1.784 0 0 0-.25.902 1.77 1.77 0 0 0 .25.902 1.792 1.792 0 0 0 .68.66 1.925 1.925 0 0 0 .927.244 1.92 1.92 0 0 0 1.313-.53c.117-.114.214-.24.293-.374a1.747 1.747 0 0 0 .186-1.37 1.808 1.808 0 0 0-1.312-1.276 1.921 1.921 0 0 0-.48-.063V3.613c.97 0 1.94.125 2.884.37a11.177 11.177 0 0 1 4.996 2.804 10.878 10.878 0 0 1 1.77 2.245c.494.83.864 1.71 1.112 2.615.252.918.382 1.861.382 2.805 0 .944-.13 1.887-.382 2.805a10.602 10.602 0 0 1-1.111 2.616z"/>
</svg>
